!!!COM: Palestrina, Giovanni Perluigi da
!!!OPR: Missa Panem nostrum
!!!OTL: Sanctus
**kern	**kern	**kern	**kern	**kern
*Ibass	*Ibarit	*Itenor	*Icalto	*Icant
!Bassus	!Baritone	!Tenor	!Altus	!Cantus
*clefF4	*clefF4	*clefGv2	*clefG2	*clefG2
*k[b-]	*k[b-]	*k[b-]	*k[b-]	*k[b-]
*G:dor	*G:dor	*G:dor	*G:dor	*G:dor
*M4/2	*M4/2	*M4/2	*M4/2	*M4/2
=1	=1	=1	=1	=1
0r	0r	1r	1.B-	0r
.	.	[1B-	.	.
.	.	.	2c	.
=2	=2	=2	=2	=2
0r	0r	2B-]	2d	0b-
.	.	2c	2e	.
.	.	2d	2f	.
.	.	[2e-	[2g	.
=3	=3	=3	=3	=3
0r	0r	2e-]	2g]	1cc
.	.	4d	4f	.
.	.	4c	4e	.
.	.	4B-	2.f	1dd
.	.	4c	.	.
.	.	4d	.	.
.	.	4e-	4g	.
=4	=4	=4	=4	=4
0r	0r	2f	4a	2cc
.	.	.	4b-	.
.	.	2c	2cc	1ee-
.	.	2e-	2g	.
.	.	2B-	[2b-	2dd
=5	=5	=5	=5	=5
0F	0r	1f	2b-]	0cc
.	.	.	4a	.
.	.	.	4g	.
.	.	1r	4a	.
.	.	.	4g	.
.	.	.	4f	.
.	.	.	4e-	.
=6	=6	=6	=6	=6
1G	0r	1B-	2d	2b-
.	.	.	1g	2dd
1A	.	1c	.	1cc
.	.	.	2f#	.
=7	=7	=7	=7	=7
2G	0r	1d	2g	0r
1B-	.	.	2.f	.
.	.	1c	.	.
.	.	.	4e	.
2A	.	.	2f	.
=8	=8	=8	=8	=8
0G	0r	2e-	2.g	0b-
.	.	2.d	.	.
.	.	.	8f	.
.	.	.	8e-	.
.	.	.	1d	.
.	.	4c	.	.
.	.	[2B-	.	.
=9	=9	=9	=9	=9
1F	0r	2B-]	1r	1cc
.	.	2A	.	.
2r	.	1B-	[1f	1dd
[2B-	.	.	.	.
=10	=10	=10	=10	=10
2B-]	0r	1F	1f]	1cc
2A	.	.	.	.
1G	.	4B-	1g	2ee-
.	.	4c	.	.
.	.	4d	.	[2dd
.	.	4e	.	.
=11	=11	=11	=11	=11
1F	0r	1f	1a	2dd]
.	.	.	.	2cc
1r	.	1g	2g	4b-
.	.	.	.	4cc
.	.	.	[2b-	4dd
.	.	.	.	4b-
=12	=12	=12	=12	=12
1r	0r	1f	2b-]	1cc
.	.	.	2a	.
[1BB-	.	4B-	2g	[1dd
.	.	4c	.	.
.	.	4d	4f	.
.	.	4e	4e	.
=13	=13	=13	=13	=13
1BB-]	0r	4f	2d	1dd]
.	.	4g	.	.
.	.	1f	2b-	.
1C	.	.	2a	2r
.	.	2e	[2g	2cc
=14	=14	=14	=14	=14
1D	0r	1d	2g]	2b-
.	.	.	2f	2.a
2C	.	1G	2e-	.
.	.	.	.	4g
2E-	.	.	2c	[2g
=15	=15	=15	=15	=15
1D	0r	1A	1d	2g]
.	.	.	.	2f#
2C	.	2c	2e-	[1g
2BB	.	2d	[2d	.
=16	=16	=16	=16	=16
1C	0r	1e-	4d]	1g]
.	.	.	4c	.
.	.	.	1c	.
1G	.	1d	.	1r
.	.	.	2B	.
=17	=17	=17	=17	=17
2A	0r	1r	2c	0f
1B-	.	.	4d	.
.	.	.	4c	.
.	.	[1B-	4d	.
.	.	.	4e	.
2A	.	.	[2f	.
=18	=18	=18	=18	=18
1G	0r	1B-]	2f]	1g
.	.	.	2e	.
1F	.	1c	1f	1a
=19	=19	=19	=19	=19
2.G	0r	2e-	2r	2g
.	.	1d	4B-	1b-
4A	.	.	4c	.
2B-	.	.	4d	.
.	.	.	4e	.
2F	.	[2c	2f	2a
=20	=20	=20	=20	=20
2G	0r	4c]	2d	1g
.	.	4B-	.	.
2E-	.	1B-	2e-	.
1F	.	.	[1c	1f
.	.	4A	.	.
.	.	4G	.	.
=21	=21	=21	=21	=21
2r	1.F	2A	2c]	2r
1BB-	.	1B-	1f	1dd
2BB-	2F	2B-	2f	2dd
=22	=22	=22	=22	=22
1F	1F	1A	1.f	1cc
1D	1F	1B-	.	1ff
.	.	.	2d	.
=23	=23	=23	=23	=23
2C	1G	2c	2e	2ee
2G	.	2B-	2g	2.dd
1C	1G	2c	2.e	.
.	.	.	.	4cc
.	.	[2g	.	[2cc
.	.	.	8d	.
.	.	.	8c	.
=24	=24	=24	=24	=24
1G	1G	4g]	1d	2cc]
.	.	4f	.	.
.	.	2d	.	2b
1C	1G	1e	1c	1cc
=25	=25	=25	=25	=25
2r	1.A	2r	2r	2r
1F	.	1f	1a	1cc
2F	2A	2f	2a	2cc
=26	=26	=26	=26	=26
1D	1A	2f	1a	1ff
.	.	1d	.	.
1A	1A	.	1a	1ee
.	.	2c#	.	.
=27	=27	=27	=27	=27
2D	1A	2.d	1f	2dd
1D	.	.	.	1ff
.	.	4e	.	.
.	2A	4f	2d	.
.	.	4g	.	.
2C#	2A	[2a	2e	[2ee
=28	=28	=28	=28	=28
1D	0A	4a]	0a	2ee]
.	.	4g	.	.
.	.	2f	.	1dd
1AA	.	1e	.	.
.	.	.	.	2cc#
=29	=29	=29	=29	=29
0r	1.G	2g	1b-	1dd
.	.	2d	.	.
.	.	2d	2b-	1r
.	2G	2e-	2g	.
=30	=30	=30	=30	=30
0r	0G	1d	1b-	2r
.	.	.	.	2dd
.	.	2G	1b-	2dd
.	.	2g	.	2ee-
=31	=31	=31	=31	=31
2r	0B-	2f	2r	1dd
2G	.	1g	2d	.
2G	.	.	2d	2g
2E-	.	2G	2e-	2gg
=32	=32	=32	=32	=32
2B-	1B-	2G	1d	4ff
.	.	.	.	4ee-
2BB-	.	2d	.	4dd
.	.	.	.	4cc
1E-	1B-	1e-	2G	4b-
.	.	.	.	4a
.	.	.	2g	2g
=33	=33	=33	=33	=33
1F	[0A	2c	4f	[0a
.	.	.	4e	.
.	.	2.f	4d	.
.	.	.	4c	.
1D	.	.	4d	.
.	.	4e	4e	.
.	.	[2d	4f	.
.	.	.	4d	.
=34	=34	=34	=34	=34
1r	0A]	2d]	1e	1a]
.	.	2c#	.	.
1D	.	1d	2f	2r
.	.	.	2a	2dd
=35	=35	=35	=35	=35
2G	0G	1r	2b-	2dd
2C	.	.	2cc	2ee-
[1G	.	2r	1b-	1dd
.	.	2d	.	.
=36	=36	=36	=36	=36
2G]	1G	2d	2b-	1g
2C	.	2e-	1g	.
1G	2G	[1d	.	1b-
.	2G	.	[2b-	.
=37	=37	=37	=37	=37
2.D	0F	1d]	2b-]	2.dd
.	.	.	4a	.
4E	.	.	4g	8cc
.	.	.	.	8b-
2F	.	2c	4f	2a
.	.	.	4e	.
[2BB-	.	2B-	4d	[2dd
.	.	.	4e	.
=38	=38	=38	=38	=38
4BB-]	0F	1d	1f	4dd]
4C	.	.	.	4cc
4D	.	.	.	1b-
4E	.	.	.	.
1F	.	1c	2f	.
.	.	.	[2f	2a
=39	=39	=39	=39	=39
2BB-	0r	1B-	4f]	2b-
.	.	.	4e	.
1B-	.	.	4d	1dd
.	.	.	4c	.
.	.	2r	2B-	.
2A	.	[2f	2c	2cc
=40	=40	=40	=40	=40
2F	0r	2f]	2d	2a
2.A	.	2e	4c	2.cc
.	.	.	4B-	.
.	.	2c	2A	.
4G	.	.	.	4b-
4F	.	[2d	[2f	4a
4E	.	.	.	4g
=41	=41	=41	=41	=41
2D	0r	4d]	2f]	2f
.	.	4c	.	.
2.G	.	4B-	2d	4g
.	.	4A	.	4a
.	.	2G	1g	4b-
4A	.	.	.	4cc
4B-	.	[2g	.	4dd
4G	.	.	.	4b-
=42	=42	=42	=42	=42
1A	0r	2g]	2r	2.cc
.	.	2f#	1cc	.
.	.	.	.	4dd
1G	.	2.g	.	2ee-
.	.	.	2b-	2dd
.	.	8f	.	.
.	.	8e-	.	.
=43	=43	=43	=43	=43
2.B-	0G	1d	2g	1dd
.	.	.	2.b-	.
4A	.	.	.	.
4G	.	1B-	.	1r
4F	.	.	4a	.
4E-	.	.	4g	.
4D	.	.	4f	.
=44	=44	=44	=44	=44
1C	0G	1c	2e-	1ee-
.	.	.	2c	.
1G	.	2B-	2.d	2dd
.	.	2d	.	[2b-
.	.	.	8c	.
.	.	.	8B-	.
=45	=45	=45	=45	=45
1r	0F	1f	1c	2b-]
.	.	.	.	2a
1BB-	.	2d	2B-	1b-
.	.	2B-	2d	.
=46	=46	=46	=46	=46
2F	0F	2A	2c	2r
2BB-	.	2B-	2.f	2dd
2F	.	2A	.	2cc
.	.	.	4g	.
2D	.	2d	4a	2ff
.	.	.	4b-	.
=47	=47	=47	=47	=47
2C	[0G	4e	2cc	2ee
.	.	4f	.	.
2G	.	4g	2b-	2dd
.	.	4f	.	.
1C	.	4e	2g	1cc
.	.	4d	.	.
.	.	2e	[2cc	.
=48	=48	=48	=48	=48
0r	0G]	1d	2cc]	1.dd
.	.	.	4b-	.
.	.	.	4a	.
.	.	2r	4b-	.
.	.	.	4a	.
.	.	2d	4g	2b-
.	.	.	4f	.
=49	=49	=49	=49	=49
2r	[0A	2c	2e	1a
2D	.	2f	2a	.
2C	.	2e	[1a	1r
2F	.	2c	.	.
=50	=50	=50	=50	=50
4D	0A]	1f	1a]	2r
4E	.	.	.	.
4F	.	.	.	2dd
4G	.	.	.	.
2A	.	2e	2r	2cc
2D	.	2d	2d	2ff
=51	=51	=51	=51	=51
2A	[0A	2r	2c	2ee
2D	.	2d	2f	2dd
2.A	.	2c	2e	1ee
.	.	2e	4A	.
4G	.	.	4B-	.
=52	=52	=52	=52	=52
2F	0A]	2f	4c	1a
.	.	.	4d	.
2C	.	2e	2e	.
1D	.	[1d	4f#	2r
.	.	.	2g	.
.	.	.	.	2dd
.	.	.	4f#	.
=53	=53	=53	=53	=53
2G	[0G	2d]	1g	2b-
2C	.	2c	.	2ee-
2BB-	.	2d	2r	2dd
2C	.	2G	2c	2ee-
=54	=54	=54	=54	=54
2G	0G]	2r	2B-	2dd
2C	.	2c	2e-	2cc
[1G	.	2B-	2d	2dd
.	.	2e-	2G	[2cc
=55	=55	=55	=55	=55
1G]	[0G	2d	0g	2cc]
.	.	2d	.	2b
1C	.	1e-	.	1cc
=56	=56	=56	=56	=56
0G	0G]	0d	0g	0b
==	==	==	==	==
*-	*-	*-	*-	*-
!!!CDT: 1525/^1526/-1594/2/2
!!!OCY: Italia
!!!AGN: Mass (Tenor)
!!!AST: renaissance, vocal
!!!ASW: Prayer
!!!PWK: Masses, Book 10
!!!RNB: Cadence finals: C
!!!YOR: Le Opere Complete, v. 27, p. 226
!!!YOO: Rome, Italy: Fratelli Scalera
!!!END: 1992//
!!!EED: John Miller
!!!YEC: Copyright 2000, John Miller
!!!YEN: United States of America
!!!YEM: Rights to all derivative electronic formats reserved.
!!!YEM: Refer to licensing agreement for further details.
!!!YEM: This file must be accompanied by the licensing agreement.
!!!YEM: A copy of the licensing agreement may be found at http://www.music-cog.ohio-state.edu/HumdrumDatabases/Palestrina/license.txt
!!!EMD: converted to Humdrum by Bret Aarden
